!!!!SEGMENT: pl-sa--l-1636--090_anonim--o-gloriosa.krn
!!!cenid: 17xx:797
!!!COM: Anonim
!!!COM-rism: pe30004985
!!!CDT:
!!!CNT:
!!!OTL: O gloriosa
!!!PDT:
!!!AGN: Sacred
!!!SMS-siglum: PL-SA
!!!SMS-shelfmark: L 1636
!!!NIFC-rismID: 1001087423
!!!URL-scan: http://repozytorium.nifc.pl/skany/pl-sa-nut--l1636
!!!ONB-nifc: 43r, skan 0038, s. 3-4
!!!SMS-variant:
!!!SMS-altvar:
**kern	**kern
*part2	*part1
*staff2	*staff1
*clefF4	*clefC1
*k[f#]	*k[f#]
*M3/2	*M3/2
=1	=1
*^	*
!LO:TX:a:t=problem&colon; znaki przykluczowe [f# f#]	!	!
!LO:TX:a:t=problem&colon;2\ 4\ 8\ right&colon;global	!	!LO:TX:b:t=O gloriosa
*2\right	*	*
2G/	2GG\	2g/ 2d/ 2B/
2G/	2GG/	2g/ 2d/ 2B/
2G/	2GG/	2g/ 2d/ 2B/
*v	*v	*
=2	=2
*	*^
2.D/	1a/ 1f#/	1.d\
4E\	.	.
4F#\	2a/ 2f#/	.
4D\	.	.
=3	=3	=3
4G\	1b/ 1g/	1.d\
4GG/	.	.
4BB/	.	.
4AA/	.	.
4BB/	2b/ 2g/	.
4C/	.	.
=4	=4	=4
*^	*	*
1D/	1DD\	1a/ 1f#/	1d\
!!LO:LB:g=original
!	!	!LO:TX:b:t=tere	!
4F#/	2D\	4a/	2ryy
4G/	.	4b/	.
*	*	*v	*v
=5	=5	=5
1G/	1AA\	1cc\T
4G/	2BB\	4b\
4F#/	.	4a\
=6	=6	=6
*	*	*^
4E/	1C\	4g/	1ryy
4D/	.	4f#/	.
4E/	.	4g/	.
4F#/	.	4a/	.
2G/	4BB\	2b/	2g\
.	4C\	.	.
=7	=7	=7	=7
1.D/	1.DD\	1a/	2g\
.	.	.	4f#\
.	.	.	4e\
.	.	2a/ 2f#/	4d\
!	!	!LO:SIC:o:s:t:=:v: nieczytelny dźwięk c/B	!
.	.	.	4c\
=8	=8	=8	=8
1.G/ 1.D/	1.BB\ 1.GG\	1.g/ 1.d/	1.B\
!LO:TX:b:t=Finis	!LO:TX:a:t=Finis	!LO:TX:a:t=Finis	!
*v	*v	*	*
=9||	=9||	=9||
4G\	2b/ 2g/	2d\
4GG/	.	.
4BB/	2b/ 2g/	2d\
4C/	.	.
4BB/	2b/ 2g/	2d\
4AA/	.	.
=10	=10	=10
*^	*	*
*	*	*^	*
1G/	4GG\	1b/ 1g/	1ryy	1.d/
.	4AA\	.	.	.
.	4BB\	.	.	.
.	4C\	.	.	.
2D/	2DD\	2a/	2f#\	.
*	*	*v	*v	*
*v	*v	*	*
=11	=11	=11
!	!LO:TX:b:t=Reuer	!
4G\	1b/	1g\
4F#\	.	.
4E\	.	.
8F#\L	.	.
8G\J	.	.
4A\	2cc#X/	4a\
4AA/	.	4g\
=12	=12	=12
!	!LO:N:vis=1	!
1.D/ 1.DD/	1.dd/ 1.a/	1.f#\
*	*v	*v
==	==
*-	*-
!!!system-decoration: [(s1,s2)]
!!!EED: Leszek Kubiak
!!!EST: 2020-12-09
!!!ENC: Marta Chmielewska
!!!END: 2020-06-12
